svgs/liveatc.svg

<?xml version="1.0" encoding="UTF-8" standalone="no"?>
<svg
   width="192"
   height="192"
   viewBox="0 0 50.799999 50.8"
   version="1.1"
   id="svg1"
   xml:space="preserve"
   xmlns="http://www.w3.org/2000/svg"
   xmlns:svg="http://www.w3.org/2000/svg"><defs
     id="defs1" /><g
     id="layer1"><path
       style="fill:none;stroke:#000000;stroke-width:3.175;stroke-linecap:round;stroke-linejoin:round;stroke-miterlimit:32;stroke-dasharray:none"
       d="M 20.213407,44.979166 V 31.903511 H 17.658041 L 13.764213,31.150175 11.225445,23.999669 16.086404,20.801084 18.204049,20.677586 16.447367,15.52774 19.22076,13.434 h 12.158412 l 2.899729,2.094 -1.680881,5.15 2.075946,0.123 4.900586,3.199 -2.299664,7.15 -3.489303,0.753511 H 30.51286 l 0.06026,13.075652"
       id="path1" /><path
       style="fill:none;stroke:#000000;stroke-width:3.175;stroke-linecap:round;stroke-linejoin:round;stroke-miterlimit:32;stroke-dasharray:none"
       d="m 28.267979,5.8208365 v 7.1875535 -0.02469 0"
       id="path2" /><path
       style="fill:none;stroke:#000000;stroke-width:3.175;stroke-linecap:round;stroke-linejoin:round;stroke-miterlimit:32;stroke-dasharray:none"
       d="M 22.626736,8.8588752 V 13.00839"
       id="path3" /></g><path
     style="fill:none;stroke:#000000;stroke-width:3.175;stroke-linecap:round;stroke-linejoin:round;stroke-miterlimit:32"
     d="M 20.213373,31.903456 H 30.512808"
     id="path4" /><path
     style="fill:none;stroke:#000000;stroke-width:3.175;stroke-linecap:round;stroke-linejoin:round;stroke-miterlimit:32"
     d="m 18.204127,20.677714 14.393862,2.65e-4"
     id="path5" /></svg>

<svg xmlns="http://www.w3.org/2000/svg" xml:space="preserve" width="192" height="192" viewBox="0 0 50.8 50.8"><path d="M20.213 44.98V31.903h-2.555l-3.894-.754L11.225 24l4.861-3.199 2.118-.123-1.757-5.15 2.774-2.094h12.158l2.9 2.094-1.681 5.15 2.076.123 4.9 3.199-2.3 7.15-3.488.754h-3.273l.06 13.075M28.268 5.82v7.188-.024 0M22.627 8.859v4.15" style="fill:none;stroke:#000;stroke-width:3.175;stroke-linecap:round;stroke-linejoin:round;stroke-miterlimit:32;stroke-dasharray:none"/><path d="M20.213 31.903h10.3M18.204 20.678h14.394" style="fill:none;stroke:#000;stroke-width:3.175;stroke-linecap:round;stroke-linejoin:round;stroke-miterlimit:32"/></svg>
